X:193
T:score270
L:1/8
Q:1/4=120
M:6/8
I:linebreak $
K:Bb
 A!mp! | (PB2 G d2 A) | (PB2 G A/B/ c A) | B>e d B>A G | G3- G2!mf! g | (P^f2 d =e/f/ g d) | %6
 P_e2 c d/e/ =f c | Pd>g f Pd>c B | B3- B2!mp! D | (=E/^F/ G D E2 G) | (A/B/ c A d2 B) | %11
 c/d/ e c PB>A G | G3- G2 z |] %13
